X:211
T:Trip to Gretford TS.211
T:Trip to Oxford,aka TS.211
M:6/8
L:1/8
Q:3/8=110
S:Thomas Sands’ MS,1810,Lincolnshire
R:jig
O:England;Lincolnshire
Z:vmp.Ruairidh Greig, 2011
K:D
DEDF2D|A,2DF2D|ABAB2d|c2de3|
DEDF2D|A,2DF2D|ABAB2c|d3d3:|
|:ABAc2d|e2fg3|f{g/}af d2f|ecAA3|
ABAc2d|e2fg3|f{g/}af gec|d3d3:|]

